hamburger-remove.svg

<svg fill="currentColor" viewBox="0 0 24 24"><path d="M21 9H3s0-6 9-6 9 6 9 6m-7.65 8H3v1c0 1.66 1.34 3 3 3h7.35c-.22-.63-.35-1.3-.35-2s.13-1.37.35-2m8.51-3.27A2 2 0 0 0 20 11h-9l-2.5 2L6 11H4c-1.1 0-2 .9-2 2s.9 2 2 2h10.54c1.1-1.22 2.69-2 4.46-2 1.04 0 2 .26 2.86.73m.68 3.15-1.42-1.41L19 17.59l-2.12-2.12-1.41 1.41L17.59 19l-2.12 2.12 1.41 1.42L19 20.41l2.12 2.13 1.42-1.42L20.41 19z"/></svg>

<svg  viewBox="0 0 24 24" fill="currentColor"><path  d="M21 9H3C3 9 3 3 12 3S21 9 21 9M13.35 17H3V18C3 19.66 4.34 21 6 21H13.35C13.13 20.37 13 19.7 13 19C13 18.3 13.13 17.63 13.35 17M21.86 13.73C21.95 13.5 22 13.26 22 13C22 11.9 21.11 11 20 11H11L8.5 13L6 11H4C2.9 11 2 11.9 2 13S2.9 15 4 15H14.54C15.64 13.78 17.23 13 19 13C20.04 13 21 13.26 21.86 13.73M22.54 16.88L21.12 15.47L19 17.59L16.88 15.47L15.47 16.88L17.59 19L15.47 21.12L16.88 22.54L19 20.41L21.12 22.54L22.54 21.12L20.41 19L22.54 16.88Z"/></svg>
